picto/lost-property-office.svg

<svg class="color-immutable" width="24" height="24" viewBox="0 0 24 24" fill="none" xmlns="http://www.w3.org/2000/svg"><g clip-path="url(#a)"><path d="M0 22.5v-21C0 .675.675 0 1.5 0h21c.825 0 1.5.675 1.5 1.5v21c0 .825-.675 1.5-1.5 1.5h-21C.675 24 0 23.325 0 22.5Z" fill="#2D327D"/><path d="M5.137 11.1a.3.3 0 0 0-.299.301c0 .426.311.788.731.852l2.422.372a.215.215 0 0 1 .185.214.219.219 0 0 1-.217.219h-4.42a.537.537 0 0 0-.539.536c0 .298.243.54.539.54h2.855a.355.355 0 0 1 0 .711H3.539a.54.54 0 0 0 0 1.078h2.855a.356.356 0 0 1 0 .711H3.539a.54.54 0 0 0 0 1.078h2.855a.356.356 0 0 1 0 .711H3.539a.54.54 0 0 0 0 1.077H15v-2.323a.562.562 0 0 0-.563-.561h-.75a.561.561 0 1 1 0-1.124h.75A.563.563 0 0 0 15 14.93v-2.324l-9.817-1.502a.232.232 0 0 0-.046-.004Z" fill="#fff"/><path d="m20.827 13.81-1.045-1.044a.568.568 0 0 0-.398-.164h-.454V8.326h.755c.724 0 1.315-.587 1.315-1.312 0-.725-.591-1.314-1.315-1.314h-.56a.375.375 0 1 0 0 .751h.56a.562.562 0 1 1 0 1.126h-3.192V5.703L4.403 7.577H3v.749h1.403l12.09 1.876V8.326h2.061v4.275H18.1a.574.574 0 0 0-.398.164l-1.045 1.046a.57.57 0 0 0-.164.397v6.23c0 .309.253.563.563.563h3.374a.563.563 0 0 0 .563-.563v-6.23a.565.565 0 0 0-.164-.397v-.001h-.002Zm-1.652 5.69h-.932v-.918h.932v.918Zm.877-2.554c-.111.158-.329.351-.655.579a.59.59 0 0 0-.212.256c-.042.1-.065.24-.069.419h-.798c.006-.214.013-.358.022-.432.009-.074.029-.154.06-.24a.84.84 0 0 1 .152-.257 3.62 3.62 0 0 1 .38-.336 1.23 1.23 0 0 0 .289-.295.568.568 0 0 0 .076-.301.452.452 0 0 0-.142-.348.526.526 0 0 0-.373-.132c-.401 0-.612.245-.631.736h-.871c.019-.38.111-.683.275-.909.271-.374.684-.561 1.239-.561.438 0 .786.118 1.043.354.253.23.38.521.38.874a.993.993 0 0 1-.165.593Z" fill="#fff"/></g><defs><clipPath id="a"><path fill="#fff" d="M0 0h24v24H0z"/></clipPath></defs></svg>

<svg class="color-immutable" width="24" height="24" viewBox="0 0 24 24" fill="none" xmlns="http://www.w3.org/2000/svg"><path d="M0 22.5V1.5C0 0.675 0.675 0 1.5 0H22.5C23.325 0 24 0.675 24 1.5V22.5C24 23.325 23.325 24 22.5 24H1.5C0.675 24 0 23.325 0 22.5Z" fill="#2D327D"/><path d="M5.137 11.1C4.971 11.1 4.838 11.235 4.838 11.401C4.838 11.827 5.149 12.189 5.569 12.253L7.991 12.625C8.098 12.64 8.176 12.732 8.176 12.839C8.176 12.96 8.078 13.058 7.959 13.058H3.539C3.243 13.057 3 13.296 3 13.594C3 13.892 3.243 14.134 3.539 14.134H6.394C6.59 14.134 6.749 14.293 6.749 14.489C6.749 14.685 6.59 14.845 6.394 14.845H3.539C3.243 14.845 3 15.086 3 15.384C3 15.682 3.243 15.923 3.539 15.923H6.394C6.59 15.923 6.749 16.083 6.749 16.279C6.749 16.475 6.59 16.634 6.394 16.634H3.539C3.243 16.633 3 16.875 3 17.173C3 17.471 3.243 17.712 3.539 17.712H6.394C6.59 17.712 6.749 17.872 6.749 18.067C6.749 18.265 6.59 18.423 6.394 18.423H3.539C3.243 18.423 3 18.665 3 18.963C3 19.259 3.243 19.5 3.539 19.5H15V17.177C15 16.867 14.748 16.616 14.437 16.616H13.687C13.376 16.616 13.124 16.363 13.124 16.054C13.124 15.742 13.376 15.492 13.687 15.492H14.437C14.748 15.492 15 15.239 15 14.93V12.606L5.183 11.104C5.168 11.101 5.153 11.1 5.137 11.1Z" fill="white"/><path d="M20.827 13.81L19.782 12.766C19.676 12.662 19.534 12.602 19.384 12.602H18.93V8.32601H19.685C20.409 8.32601 21 7.73901 21 7.01401C21 6.28901 20.409 5.70001 19.685 5.70001H19.125C18.916 5.70001 18.749 5.86801 18.749 6.07601C18.749 6.28201 18.916 6.45101 19.125 6.45101H19.685C19.997 6.45101 20.248 6.70301 20.248 7.01501C20.248 7.32501 19.997 7.57701 19.685 7.57701H16.493V5.70301L4.403 7.57701H3V7.95301V8.32601H4.403L16.493 10.202V8.32601H18.554V12.601H18.1C17.953 12.601 17.808 12.661 17.702 12.765L16.657 13.811C16.554 13.915 16.493 14.06 16.493 14.208V20.438C16.493 20.747 16.746 21.001 17.056 21.001H20.43C20.742 21.001 20.993 20.748 20.993 20.438V14.208C20.993 14.061 20.934 13.916 20.829 13.811V13.81H20.827ZM19.175 19.5H18.243V18.582H19.175V19.5ZM20.052 16.946C19.941 17.104 19.723 17.297 19.397 17.525C19.298 17.595 19.227 17.68 19.185 17.781C19.143 17.881 19.12 18.021 19.116 18.2H18.318C18.324 17.986 18.331 17.842 18.34 17.768C18.349 17.694 18.369 17.614 18.4 17.528C18.439 17.427 18.49 17.341 18.552 17.271C18.614 17.201 18.741 17.089 18.932 16.935C19.074 16.822 19.171 16.724 19.221 16.64C19.272 16.556 19.297 16.456 19.297 16.339C19.297 16.195 19.25 16.079 19.155 15.991C19.06 15.903 18.936 15.859 18.782 15.859C18.381 15.859 18.17 16.104 18.151 16.595H17.28C17.299 16.215 17.391 15.912 17.555 15.686C17.826 15.312 18.239 15.125 18.794 15.125C19.232 15.125 19.58 15.243 19.837 15.479C20.09 15.709 20.217 16 20.217 16.353C20.219 16.59 20.163 16.788 20.052 16.946Z" fill="white"/></svg>
